X: 4691
T: Boys From Chicago, The
R: reel
M: 4/4
K: Edorian
|:Be ~e2 BAGA|BAGF EDB,D|EFGA B/c/d ef|edBG A2 GA|
Be ~e2 BAGA|BAGF EDB,D|EFGA Bgfd|1 edBG E4:|2 edBG E3A||
|:Be ~e2 Bege|dA ~A2 dAaf|g2fg edBA|Bgfg efga|beed egfe|
dA ~A2 dAaf|1 g2fg edBA|Bgfg ~e3z:|2 g2fg edB/c/d|edBG E3z||

